assets/Moon cake/Flat/moon_cake_flat.svg

<svg width="32" height="32" viewBox="0 0 32 32" fill="none" xmlns="http://www.w3.org/2000/svg">
<path d="M27.6076 18.1677C27.6076 17.0977 28.0476 15.9977 27.7776 15.0077C27.5076 13.9877 26.5676 13.2477 26.0476 12.3577C25.5276 11.4577 25.3476 10.2677 24.6176 9.53768C23.8876 8.80768 22.7076 8.62768 21.7976 8.10768C20.9076 7.58768 20.1676 6.65768 19.1476 6.37768C18.1676 6.11768 17.0576 6.54768 15.9976 6.54768C14.9276 6.54768 13.8276 6.10768 12.8376 6.37768C11.8176 6.64768 11.0776 7.58768 10.1876 8.10768C9.28764 8.62768 8.09764 8.80768 7.36764 9.53768C6.63764 10.2677 6.45764 11.4477 5.93764 12.3577C5.41764 13.2477 4.48764 13.9877 4.20764 15.0077C3.94764 15.9877 4.37764 17.0977 4.37764 18.1677C4.37764 19.2377 3.93764 20.3377 4.20764 21.3277C4.47764 22.3477 5.41764 23.0877 5.93764 23.9777C6.45764 24.8777 6.63764 26.0677 7.36764 26.7977C8.09764 27.5277 9.27764 27.7077 10.1876 28.2277C11.0776 28.7477 11.8176 29.6777 12.8376 29.9577C13.8176 30.2177 14.9276 29.7877 15.9976 29.7877C17.0676 29.7877 18.1676 30.2277 19.1576 29.9577C20.1776 29.6877 20.9176 28.7477 21.8076 28.2277C22.7076 27.7077 23.8976 27.5277 24.6276 26.7977C25.3576 26.0677 25.5376 24.8877 26.0576 23.9777C26.5776 23.0877 27.5076 22.3477 27.7876 21.3277C28.0376 20.3377 27.6076 19.2277 27.6076 18.1677Z" fill="#6D4534"/>
<path d="M27.7276 13.9976C27.7276 12.9176 28.1676 11.7976 27.8976 10.8076C27.6276 9.77765 26.6776 9.02765 26.1576 8.12765C25.6276 7.21765 25.4476 6.01765 24.7076 5.27765C23.9676 4.53765 22.7676 4.35765 21.8576 3.82765C20.9576 3.30765 20.2076 2.35765 19.1776 2.08765C18.1876 1.81765 17.0676 2.25765 15.9976 2.25765C14.9176 2.25765 13.7976 1.81765 12.8076 2.08765C11.7776 2.35765 11.0276 3.30765 10.1276 3.82765C9.20765 4.35765 8.01765 4.53765 7.27765 5.27765C6.53765 6.01765 6.35765 7.20765 5.82765 8.12765C5.30765 9.02765 4.35765 9.77765 4.08765 10.7976C3.81765 11.7976 4.25765 12.9176 4.25765 13.9976C4.25765 15.0776 3.81765 16.1976 4.08765 17.1876C4.35765 18.2176 5.30765 18.9676 5.82765 19.8676C6.35765 20.7776 6.53765 21.9776 7.27765 22.7176C8.01765 23.4576 9.21765 23.6376 10.1276 24.1676C11.0276 24.6876 11.7776 25.6376 12.8076 25.9076C13.7976 26.1776 14.9176 25.7376 15.9976 25.7376C17.0776 25.7376 18.1976 26.1776 19.1876 25.9076C20.2176 25.6376 20.9676 24.6876 21.8676 24.1676C22.7776 23.6376 23.9776 23.4576 24.7176 22.7176C25.4576 21.9776 25.6376 20.7776 26.1676 19.8676C26.6876 18.9676 27.6376 18.2176 27.9076 17.1876C28.1676 16.1876 27.7276 15.0676 27.7276 13.9976Z" fill="#F3AD61"/>
<path d="M24.9777 14.8377H22.5677V13.1477H24.9777C25.2477 13.1477 25.4677 12.9277 25.4677 12.6577C25.4677 8.04766 21.7177 4.28766 17.0977 4.28766H14.8677C10.2577 4.28766 6.49768 8.03766 6.49768 12.6577C6.49768 12.9277 6.71768 13.1477 6.98768 13.1477H9.39768V14.8377H7.00768C6.73768 14.8377 6.51768 15.0577 6.51768 15.3277C6.51768 19.9377 10.2677 23.6977 14.8877 23.6977H17.1177C21.7277 23.6977 25.4877 19.9477 25.4877 15.3277C25.4777 15.0577 25.2577 14.8377 24.9777 14.8377ZM14.8777 5.27766H17.1077C21.0077 5.27766 24.2177 8.32766 24.4677 12.1677H17.5977V7.76766C18.8577 7.89766 20.0177 8.50766 20.8377 9.45766H19.0977C18.8277 9.45766 18.6077 9.67766 18.6077 9.94766C18.6077 10.2177 18.8277 10.4377 19.0977 10.4377H21.7877C21.9677 10.4377 22.1277 10.3477 22.2177 10.1877C22.3077 10.0377 22.3077 9.84766 22.2177 9.69766C21.1677 7.87766 19.2077 6.74766 17.0977 6.74766C16.8277 6.74766 16.6077 6.96766 16.6077 7.23766V8.70766H15.3677V7.23766C15.3677 6.96766 15.1477 6.74766 14.8777 6.74766C12.7777 6.74766 10.8177 7.87766 9.75768 9.69766C9.66768 9.84766 9.66768 10.0377 9.75768 10.1877C9.84768 10.3377 10.0077 10.4377 10.1877 10.4377H12.8777C13.1477 10.4377 13.3677 10.2177 13.3677 9.94766C13.3677 9.67766 13.1577 9.44766 12.8877 9.44766H11.1477C11.9677 8.49766 13.1277 7.88766 14.3877 7.75766V12.1577H7.51768C7.77768 8.31766 10.9777 5.27766 14.8777 5.27766ZM10.3977 13.1477H14.8777C15.1477 13.1477 15.3677 12.9277 15.3677 12.6577V9.69766H16.6077V12.6477C16.6077 12.9177 16.8277 13.1377 17.0977 13.1377H21.5777V14.8277H17.0977C16.8277 14.8277 16.6077 15.0477 16.6077 15.3177V18.2677H15.3677V15.3177C15.3677 15.0477 15.1477 14.8277 14.8777 14.8277H10.3977V13.1477ZM17.1077 22.7177H14.8777C10.9777 22.7177 7.76768 19.6677 7.51768 15.8277H14.3877V20.2277C13.1277 20.0977 11.9677 19.4877 11.1477 18.5377H12.8877C13.1577 18.5377 13.3777 18.3177 13.3777 18.0477C13.3777 17.7777 13.1577 17.5577 12.8877 17.5577H10.1877C10.0077 17.5577 9.84768 17.6477 9.75768 17.8077C9.66768 17.9577 9.66768 18.1477 9.75768 18.2977C10.8077 20.1177 12.7677 21.2477 14.8777 21.2477C15.1477 21.2477 15.3677 21.0277 15.3677 20.7577V19.2877H16.6077V20.7577C16.6077 21.0277 16.8277 21.2477 17.0977 21.2477C19.1977 21.2477 21.1577 20.1177 22.2177 18.2977C22.3077 18.1477 22.3077 17.9577 22.2177 17.8077C22.1277 17.6577 21.9677 17.5577 21.7877 17.5577H19.0977C18.8277 17.5577 18.6077 17.7777 18.6077 18.0477C18.6077 18.3177 18.8277 18.5377 19.0977 18.5377H20.8377C20.0177 19.4877 18.8577 20.0977 17.5977 20.2277V15.8277H24.4677C24.2077 19.6677 21.0077 22.7177 17.1077 22.7177Z" fill="#FFDEA7"/>
</svg>

<svg xmlns="http://www.w3.org/2000/svg" width="32" height="32" fill="none"><path fill="#6D4534" d="M27.608 18.168c0-1.07.44-2.17.17-3.16-.27-1.02-1.21-1.76-1.73-2.65-.52-.9-.7-2.09-1.43-2.82s-1.91-.91-2.82-1.43c-.89-.52-1.63-1.45-2.65-1.73-.98-.26-2.09.17-3.15.17-1.07 0-2.17-.44-3.16-.17-1.02.27-1.76 1.21-2.65 1.73-.9.52-2.09.7-2.82 1.43s-.91 1.91-1.43 2.82c-.52.89-1.45 1.63-1.73 2.65-.26.98.17 2.09.17 3.16 0 1.07-.44 2.17-.17 3.16.27 1.02 1.21 1.76 1.73 2.65.52.9.7 2.09 1.43 2.82s1.91.91 2.82 1.43c.89.52 1.63 1.45 2.65 1.73.98.26 2.09-.17 3.16-.17 1.07 0 2.17.44 3.16.17 1.02-.27 1.76-1.21 2.65-1.73.9-.52 2.09-.7 2.82-1.43s.91-1.91 1.43-2.82c.52-.89 1.45-1.63 1.73-2.65.25-.99-.18-2.1-.18-3.16Z"/><path fill="#F3AD61" d="M27.728 13.998c0-1.08.44-2.2.17-3.19-.27-1.03-1.22-1.78-1.74-2.68-.53-.91-.71-2.11-1.45-2.85-.74-.74-1.94-.92-2.85-1.45-.9-.52-1.65-1.47-2.68-1.74-.99-.27-2.11.17-3.18.17-1.08 0-2.2-.44-3.19-.17-1.03.27-1.78 1.22-2.68 1.74-.92.53-2.11.71-2.85 1.45-.74.74-.92 1.93-1.45 2.85-.52.9-1.47 1.65-1.74 2.67-.27 1 .17 2.12.17 3.2s-.44 2.2-.17 3.19c.27 1.03 1.22 1.78 1.74 2.68.53.91.71 2.11 1.45 2.85.74.74 1.94.92 2.85 1.45.9.52 1.65 1.47 2.68 1.74.99.27 2.11-.17 3.19-.17s2.2.44 3.19.17c1.03-.27 1.78-1.22 2.68-1.74.91-.53 2.11-.71 2.85-1.45.74-.74.92-1.94 1.45-2.85.52-.9 1.47-1.65 1.74-2.68.26-1-.18-2.12-.18-3.19Z"/><path fill="#FFDEA7" d="M24.978 14.838h-2.41v-1.69h2.41c.27 0 .49-.22.49-.49 0-4.61-3.75-8.37-8.37-8.37h-2.23c-4.61 0-8.37 3.75-8.37 8.37 0 .27.22.49.49.49h2.41v1.69h-2.39a.49.49 0 0 0-.49.49c0 4.61 3.75 8.37 8.37 8.37h2.23c4.61 0 8.37-3.75 8.37-8.37a.508.508 0 0 0-.51-.49Zm-10.1-9.56h2.23c3.9 0 7.11 3.05 7.36 6.89h-6.87v-4.4c1.26.13 2.42.74 3.24 1.69h-1.74a.49.49 0 0 0 0 .98h2.69c.18 0 .34-.09.43-.25.09-.15.09-.34 0-.49a5.921 5.921 0 0 0-5.12-2.95.49.49 0 0 0-.49.49v1.47h-1.24v-1.47a.49.49 0 0 0-.49-.49c-2.1 0-4.06 1.13-5.12 2.95-.09.15-.09.34 0 .49.09.15.25.25.43.25h2.69c.27 0 .49-.22.49-.49s-.21-.5-.48-.5h-1.74c.82-.95 1.98-1.56 3.24-1.69v4.4h-6.87c.26-3.84 3.46-6.88 7.36-6.88Zm-4.48 7.87h4.48c.27 0 .49-.22.49-.49v-2.96h1.24v2.95c0 .27.22.49.49.49h4.48v1.69h-4.48a.49.49 0 0 0-.49.49v2.95h-1.24v-2.95a.49.49 0 0 0-.49-.49h-4.48v-1.68Zm6.71 9.57h-2.23c-3.9 0-7.11-3.05-7.36-6.89h6.87v4.4a4.958 4.958 0 0 1-3.24-1.69h1.74a.49.49 0 0 0 0-.98h-2.7c-.18 0-.34.09-.43.25-.09.15-.09.34 0 .49a5.921 5.921 0 0 0 5.12 2.95c.27 0 .49-.22.49-.49v-1.47h1.24v1.47c0 .27.22.49.49.49 2.1 0 4.06-1.13 5.12-2.95.09-.15.09-.34 0-.49a.504.504 0 0 0-.43-.25h-2.69a.49.49 0 0 0 0 .98h1.74c-.82.95-1.98 1.56-3.24 1.69v-4.4h6.87c-.26 3.84-3.46 6.89-7.36 6.89Z"/></svg>
